svg/color/ctp.svg

<?xml version="1.0" encoding="UTF-8" ?>
<!DOCTYPE svg PUBLIC "-//W3C//DTD SVG 1.1//EN" "http://www.w3.org/Graphics/SVG/1.1/DTD/svg11.dtd">
<svg width="250pt" height="250pt" viewBox="0 0 250 250" version="1.1" xmlns="http://www.w3.org/2000/svg">
<g id="#fefefeff">
<path fill="#fefefe" opacity="1.00" d=" M 0.00 0.00 L 152.12 0.00 C 149.12 2.60 149.97 7.05 152.01 10.01 C 158.36 19.86 163.96 30.31 171.71 39.17 C 183.27 56.07 205.68 62.31 225.18 59.28 C 228.30 59.08 232.03 56.20 229.62 52.47 C 222.62 42.06 214.26 32.23 204.22 24.66 C 190.71 13.04 174.27 5.63 157.52 0.00 L 250.00 0.00 L 250.00 104.38 C 250.90 98.80 245.28 95.59 240.80 97.69 C 214.88 105.67 187.78 121.12 160.31 110.12 C 144.92 103.81 133.50 90.33 128.94 74.47 C 125.06 55.29 128.19 34.02 117.11 16.79 C 112.69 7.04 102.20 -0.09 91.30 1.28 C 80.48 3.79 69.56 7.99 60.74 14.71 C 55.73 20.06 55.05 28.42 57.71 35.08 C 62.78 55.40 80.41 68.52 90.82 85.90 C 95.71 94.23 99.06 103.35 101.33 112.72 C 101.42 123.17 101.48 133.68 97.80 143.64 C 94.93 152.00 90.92 159.89 87.45 168.00 C 84.08 175.01 81.36 182.33 79.50 189.89 C 76.44 200.44 78.25 211.76 83.27 221.37 C 85.12 225.69 87.12 230.06 90.62 233.31 C 96.31 241.60 104.80 247.41 114.47 250.00 L 0.00 250.00 L 0.00 143.59 C 1.23 148.99 2.48 154.40 4.04 159.72 C 6.64 170.38 11.81 180.26 17.22 189.72 C 19.08 193.17 25.50 193.61 26.30 189.32 C 30.01 178.49 36.10 168.71 40.24 158.06 C 46.61 145.39 53.43 132.25 55.22 118.00 C 55.99 114.27 55.91 110.47 55.39 106.72 C 54.50 99.73 51.48 93.23 49.18 86.61 C 44.72 73.38 38.50 60.80 33.09 47.95 C 32.06 43.40 25.95 42.88 23.93 46.97 C 12.26 62.73 3.50 81.31 0.94 100.85 C 0.71 101.51 0.24 102.83 0.00 103.49 L 0.00 0.00 Z" />
</g>
<g id="#7755eaff">
<path fill="#7755ea" opacity="1.00" d=" M 152.12 0.00 L 157.52 0.00 C 174.27 5.63 190.71 13.04 204.22 24.66 C 211.74 34.51 221.76 42.24 227.99 53.11 C 228.43 54.83 226.85 55.85 225.61 56.65 C 210.31 58.88 193.00 58.05 181.10 46.90 C 178.09 44.18 175.38 41.03 171.71 39.17 C 163.96 30.31 158.36 19.86 152.01 10.01 C 149.97 7.05 149.12 2.60 152.12 0.00 Z" />
</g>
<g id="#7948eeff">
<path fill="#7948ee" opacity="1.00" d=" M 91.30 1.28 C 102.20 -0.09 112.69 7.04 117.11 16.79 C 118.43 25.09 126.36 36.75 120.06 44.12 C 115.03 48.77 105.46 40.90 102.03 47.71 C 91.56 49.78 79.42 45.82 71.09 53.95 C 65.98 48.91 62.32 41.19 57.71 35.08 C 55.05 28.42 55.73 20.06 60.74 14.71 C 69.56 7.99 80.48 3.79 91.30 1.28 Z" />
</g>
<g id="#765deaff">
<path fill="#765dea" opacity="1.00" d=" M 117.11 16.79 C 128.19 34.02 125.06 55.29 128.94 74.47 C 126.15 78.07 133.10 87.60 124.09 83.93 C 119.88 81.12 114.70 83.23 110.95 85.89 C 104.29 88.30 96.95 87.69 90.82 85.90 C 80.41 68.52 62.78 55.40 57.71 35.08 C 62.32 41.19 65.98 48.91 71.09 53.95 C 79.42 45.82 91.56 49.78 102.03 47.71 C 105.46 40.90 115.03 48.77 120.06 44.12 C 126.36 36.75 118.43 25.09 117.11 16.79 Z" />
</g>
<g id="#7b6cd1ff">
<path fill="#7b6cd1" opacity="1.00" d=" M 204.22 24.66 C 214.26 32.23 222.62 42.06 229.62 52.47 C 232.03 56.20 228.30 59.08 225.18 59.28 C 205.68 62.31 183.27 56.07 171.71 39.17 C 175.38 41.03 178.09 44.18 181.10 46.90 C 193.00 58.05 210.31 58.88 225.61 56.65 C 226.85 55.85 228.43 54.83 227.99 53.11 C 221.76 42.24 211.74 34.51 204.22 24.66 Z" />
</g>
<g id="#765de9ff">
<path fill="#765de9" opacity="1.00" d=" M 23.93 46.97 C 25.95 42.88 32.06 43.40 33.09 47.95 C 38.50 60.80 44.72 73.38 49.18 86.61 C 47.93 89.96 50.51 96.23 44.71 95.62 C 33.26 100.24 20.66 101.08 8.44 102.54 C 6.03 106.67 2.60 104.10 0.94 100.85 C 3.50 81.31 12.26 62.73 23.93 46.97 Z" />
</g>
<g id="#7274e8ff">
<path fill="#7274e8" opacity="1.00" d=" M 124.09 83.93 C 133.10 87.60 126.15 78.07 128.94 74.47 C 133.50 90.33 144.92 103.81 160.31 110.12 C 159.14 115.72 152.69 110.39 149.46 113.47 C 143.09 118.88 133.81 116.02 126.61 119.54 C 119.89 122.68 112.01 121.86 105.12 123.16 C 99.45 130.72 103.31 116.91 101.33 112.72 C 99.06 103.35 95.71 94.23 90.82 85.90 C 96.95 87.69 104.29 88.30 110.95 85.89 C 114.70 83.23 119.88 81.12 124.09 83.93 Z" />
</g>
<g id="#7270e9ff">
<path fill="#7270e9" opacity="1.00" d=" M 49.18 86.61 C 51.48 93.23 54.50 99.73 55.39 106.72 C 55.21 110.47 55.00 114.25 55.22 118.00 C 50.88 118.44 53.58 125.20 49.76 126.79 C 45.15 131.08 39.52 133.57 33.17 133.22 C 28.51 137.32 22.16 135.14 16.52 136.32 C 10.89 135.90 5.58 139.87 0.00 138.26 L 0.00 103.49 C 0.24 102.83 0.71 101.51 0.94 100.85 C 2.60 104.10 6.03 106.67 8.44 102.54 C 20.66 101.08 33.26 100.24 44.71 95.62 C 50.51 96.23 47.93 89.96 49.18 86.61 Z" />
</g>
<g id="#7085e6ff">
<path fill="#7085e6" opacity="1.00" d=" M 240.80 97.69 C 245.28 95.59 250.90 98.80 250.00 104.38 L 250.00 117.86 C 241.06 118.56 232.07 119.72 223.44 122.25 C 216.83 123.67 208.74 121.52 202.89 125.40 C 201.41 131.26 194.38 128.97 190.17 127.47 C 186.89 130.61 180.76 129.84 179.35 134.67 C 175.14 137.01 174.99 132.59 172.89 130.89 C 167.67 132.10 161.96 133.00 158.29 137.27 C 154.41 139.20 148.82 134.93 145.35 138.42 C 136.50 147.46 119.88 136.79 111.72 146.59 C 109.57 145.65 107.68 143.80 105.18 143.94 C 104.04 146.28 103.71 149.05 101.86 151.01 C 98.80 149.87 99.67 145.84 97.80 143.64 C 101.48 133.68 101.42 123.17 101.33 112.72 C 103.31 116.91 99.45 130.72 105.12 123.16 C 112.01 121.86 119.89 122.68 126.61 119.54 C 133.81 116.02 143.09 118.88 149.46 113.47 C 152.69 110.39 159.14 115.72 160.31 110.12 C 187.78 121.12 214.88 105.67 240.80 97.69 Z" />
</g>
<g id="#a8aae1ff">
<path fill="#a8aae1" opacity="1.00" d=" M 55.39 106.72 C 55.91 110.47 55.99 114.27 55.22 118.00 C 55.00 114.25 55.21 110.47 55.39 106.72 Z" />
</g>
<g id="#7082e6ff">
<path fill="#7082e6" opacity="1.00" d=" M 49.76 126.79 C 53.58 125.20 50.88 118.44 55.22 118.00 C 53.43 132.25 46.61 145.39 40.24 158.06 C 35.12 161.58 32.26 168.94 25.30 170.30 C 18.77 173.23 13.23 168.69 7.43 166.61 C 7.84 163.59 7.09 160.49 4.04 159.72 C 2.48 154.40 1.23 148.99 0.00 143.59 L 0.00 138.26 C 5.58 139.87 10.89 135.90 16.52 136.32 C 22.16 135.14 28.51 137.32 33.17 133.22 C 39.52 133.57 45.15 131.08 49.76 126.79 Z" />
</g>
<g id="#6e8fe4ff">
<path fill="#6e8fe4" opacity="1.00" d=" M 223.44 122.25 C 232.07 119.72 241.06 118.56 250.00 117.86 L 250.00 133.92 C 229.39 139.79 206.91 131.61 186.63 139.62 C 176.63 143.24 167.43 149.65 161.02 158.18 C 157.60 152.39 153.14 158.60 149.20 160.24 C 142.07 157.99 134.86 160.28 128.34 163.31 C 114.72 163.89 100.89 168.80 87.45 168.00 C 90.92 159.89 94.93 152.00 97.80 143.64 C 99.67 145.84 98.80 149.87 101.86 151.01 C 103.71 149.05 104.04 146.28 105.18 143.94 C 107.68 143.80 109.57 145.65 111.72 146.59 C 119.88 136.79 136.50 147.46 145.35 138.42 C 148.82 134.93 154.41 139.20 158.29 137.27 C 161.96 133.00 167.67 132.10 172.89 130.89 C 174.99 132.59 175.14 137.01 179.35 134.67 C 180.76 129.84 186.89 130.61 190.17 127.47 C 194.38 128.97 201.41 131.26 202.89 125.40 C 208.74 121.52 216.83 123.67 223.44 122.25 Z" />
</g>
<g id="#fcfefeff">
<path fill="#fcfefe" opacity="1.00" d=" M 186.63 139.62 C 206.91 131.61 229.39 139.79 250.00 133.92 L 250.00 250.00 L 127.59 250.00 C 141.86 246.10 146.41 230.99 147.01 217.90 C 147.26 213.33 147.93 208.79 147.94 204.22 C 148.50 195.16 149.13 186.08 151.25 177.23 C 153.65 170.47 156.66 163.91 161.02 158.18 C 167.43 149.65 176.63 143.24 186.63 139.62 M 233.62 156.55 C 214.93 159.07 193.13 171.21 191.91 192.01 C 190.27 201.13 193.17 213.79 196.21 223.92 C 204.68 225.33 209.82 217.14 215.26 212.26 C 222.58 203.46 231.18 194.91 235.04 183.91 C 240.29 178.06 242.53 169.83 245.61 162.63 C 248.70 154.42 238.19 155.47 233.62 156.55 Z" />
</g>
<g id="#6c9be3ff">
<path fill="#6c9be3" opacity="1.00" d=" M 149.20 160.24 C 153.14 158.60 157.60 152.39 161.02 158.18 C 156.66 163.91 153.65 170.47 151.25 177.23 C 147.54 174.52 146.24 179.14 144.43 181.56 C 134.34 182.70 124.24 183.81 114.18 185.22 C 109.09 189.39 102.03 187.63 96.38 190.39 C 91.20 191.39 82.72 197.04 79.50 189.89 C 81.36 182.33 84.08 175.01 87.45 168.00 C 100.89 168.80 114.72 163.89 128.34 163.31 C 134.86 160.28 142.07 157.99 149.20 160.24 Z" />
</g>
<g id="#6ca7dfff">
<path fill="#6ca7df" opacity="1.00" d=" M 233.62 156.55 C 238.19 155.47 248.70 154.42 245.61 162.63 C 242.53 169.83 240.29 178.06 235.04 183.91 C 231.56 185.24 229.43 188.27 228.53 191.78 C 225.71 192.96 225.92 188.00 223.32 188.59 C 218.84 190.06 214.05 189.12 209.46 189.01 C 210.47 194.55 203.21 186.68 201.99 190.97 C 200.52 195.68 195.45 191.51 193.05 194.99 C 191.16 197.26 192.22 193.11 191.91 192.01 C 193.13 171.21 214.93 159.07 233.62 156.55 Z" />
</g>
<g id="#7393dfff">
<path fill="#7393df" opacity="1.00" d=" M 25.30 170.30 C 32.26 168.94 35.12 161.58 40.24 158.06 C 36.10 168.71 30.01 178.49 26.30 189.32 C 25.50 193.61 19.08 193.17 17.22 189.72 C 11.81 180.26 6.64 170.38 4.04 159.72 C 7.09 160.49 7.84 163.59 7.43 166.61 C 13.23 168.69 18.77 173.23 25.30 170.30 Z" />
</g>
<g id="#6ba7e1ff">
<path fill="#6ba7e1" opacity="1.00" d=" M 144.43 181.56 C 146.24 179.14 147.54 174.52 151.25 177.23 C 149.13 186.08 148.50 195.16 147.94 204.22 C 146.86 202.90 145.86 201.52 144.71 200.27 C 138.97 202.47 132.28 200.55 126.96 203.92 C 122.81 206.43 117.91 206.62 113.24 207.23 C 107.08 213.13 97.25 206.82 90.06 210.03 C 86.66 213.03 85.86 217.84 83.27 221.37 C 78.25 211.76 76.44 200.44 79.50 189.89 C 82.72 197.04 91.20 191.39 96.38 190.39 C 102.03 187.63 109.09 189.39 114.18 185.22 C 124.24 183.81 134.34 182.70 144.43 181.56 Z" />
</g>
<g id="#6bb4dcff">
<path fill="#6bb4dc" opacity="1.00" d=" M 228.53 191.78 C 229.43 188.27 231.56 185.24 235.04 183.91 C 231.18 194.91 222.58 203.46 215.26 212.26 C 209.82 217.14 204.68 225.33 196.21 223.92 C 193.17 213.79 190.27 201.13 191.91 192.01 C 192.22 193.11 191.16 197.26 193.05 194.99 C 195.45 191.51 200.52 195.68 201.99 190.97 C 203.21 186.68 210.47 194.55 209.46 189.01 C 214.05 189.12 218.84 190.06 223.32 188.59 C 225.92 188.00 225.71 192.96 228.53 191.78 Z" />
</g>
<g id="#68b2e0ff">
<path fill="#68b2e0" opacity="1.00" d=" M 126.96 203.92 C 132.28 200.55 138.97 202.47 144.71 200.27 C 145.86 201.52 146.86 202.90 147.94 204.22 C 147.93 208.79 147.26 213.33 147.01 217.90 C 144.09 221.00 141.21 225.57 136.01 223.27 C 129.99 220.00 128.85 229.34 122.97 226.96 C 114.64 227.37 106.69 230.10 98.90 232.80 C 94.89 233.95 89.05 225.28 90.62 233.31 C 87.12 230.06 85.12 225.69 83.27 221.37 C 85.86 217.84 86.66 213.03 90.06 210.03 C 97.25 206.82 107.08 213.13 113.24 207.23 C 117.91 206.62 122.81 206.43 126.96 203.92 Z" />
</g>
<g id="#69bdddff">
<path fill="#69bddd" opacity="1.00" d=" M 136.01 223.27 C 141.21 225.57 144.09 221.00 147.01 217.90 C 146.41 230.99 141.86 246.10 127.59 250.00 L 114.47 250.00 C 104.80 247.41 96.31 241.60 90.62 233.31 C 89.05 225.28 94.89 233.95 98.90 232.80 C 106.69 230.10 114.64 227.37 122.97 226.96 C 128.85 229.34 129.99 220.00 136.01 223.27 Z" />
</g>
</svg>

<?xml version="1.0" encoding="utf-8"?>
<!-- Generator: Adobe Illustrator 26.0.3, SVG Export Plug-In . SVG Version: 6.00 Build 0)  -->
<svg version="1.1" id="Layer_1" xmlns="http://www.w3.org/2000/svg" xmlns:xlink="http://www.w3.org/1999/xlink" x="0px" y="0px"
	 viewBox="0 0 250 250" style="enable-background:new 0 0 250 250;" xml:space="preserve">
<style type="text/css">
	.st0{fill:#7755EA;}
	.st1{fill:#7948EE;}
	.st2{fill:#765DEA;}
	.st3{fill:#7B6CD1;}
	.st4{fill:#765DE9;}
	.st5{fill:#7274E8;}
	.st6{fill:#7270E9;}
	.st7{fill:#7085E6;}
	.st8{fill:#A8AAE1;}
	.st9{fill:#7082E6;}
	.st10{fill:#6E8FE4;}
	.st11{fill:#FCFEFE;}
	.st12{fill:#6C9BE3;}
	.st13{fill:#6CA7DF;}
	.st14{fill:#7393DF;}
	.st15{fill:#6BA7E1;}
	.st16{fill:#6BB4DC;}
	.st17{fill:#68B2E0;}
	.st18{fill:#69BDDD;}
</style>
<g id="_x23_7755eaff">
	<path class="st0" d="M152.1,0h5.4c16.8,5.6,33.2,13,46.7,24.7c7.5,9.8,17.5,17.6,23.8,28.5c0.4,1.7-1.1,2.7-2.4,3.5
		c-15.3,2.2-32.6,1.4-44.5-9.8c-3-2.7-5.7-5.9-9.4-7.7C164,30.3,158.4,19.9,152,10C150,7.1,149.1,2.6,152.1,0z"/>
</g>
<g id="_x23_7948eeff">
	<path class="st1" d="M91.3,1.3c10.9-1.4,21.4,5.8,25.8,15.5c1.3,8.3,9.2,20,2.9,27.3c-5,4.7-14.6-3.2-18,3.6
		c-10.5,2.1-22.6-1.9-30.9,6.2c-5.1-5-8.8-12.8-13.4-18.9c-2.7-6.7-2-15,3-20.4C69.6,8,80.5,3.8,91.3,1.3z"/>
</g>
<g id="_x23_765deaff">
	<path class="st2" d="M117.1,16.8c11.1,17.2,7.9,38.5,11.8,57.7c-2.8,3.6,4.2,13.1-4.9,9.5c-4.2-2.8-9.4-0.7-13.1,2
		c-6.7,2.4-14,1.8-20.1,0c-10.4-17.4-28-30.5-33.1-50.8C62.3,41.2,66,48.9,71.1,54c8.3-8.1,20.5-4.2,30.9-6.2c3.4-6.8,13,1.1,18-3.6
		C126.4,36.8,118.4,25.1,117.1,16.8z"/>
</g>
<g id="_x23_7b6cd1ff">
	<path class="st3" d="M204.2,24.7c10,7.6,18.4,17.4,25.4,27.8c2.4,3.7-1.3,6.6-4.4,6.8c-19.5,3-41.9-3.2-53.5-20.1
		c3.7,1.9,6.4,5,9.4,7.7c11.9,11.1,29.2,12,44.5,9.8c1.2-0.8,2.8-1.8,2.4-3.5C221.8,42.2,211.7,34.5,204.2,24.7z"/>
</g>
<g id="_x23_765de9ff">
	<path class="st4" d="M23.9,47c2-4.1,8.1-3.6,9.2,1c5.4,12.8,11.6,25.4,16.1,38.7c-1.2,3.3,1.3,9.6-4.5,9c-11.5,4.6-24,5.5-36.3,6.9
		c-2.4,4.1-5.8,1.6-7.5-1.7C3.5,81.3,12.3,62.7,23.9,47z"/>
</g>
<g id="_x23_7274e8ff">
	<path class="st5" d="M124.1,83.9c9,3.7,2.1-5.9,4.9-9.5c4.6,15.9,16,29.3,31.4,35.7c-1.2,5.6-7.6,0.3-10.8,3.3
		c-6.4,5.4-15.7,2.5-22.9,6.1c-6.7,3.1-14.6,2.3-21.5,3.6c-5.7,7.6-1.8-6.2-3.8-10.4c-2.3-9.4-5.6-18.5-10.5-26.8
		c6.1,1.8,13.5,2.4,20.1,0C114.7,83.2,119.9,81.1,124.1,83.9z"/>
</g>
<g id="_x23_7270e9ff">
	<path class="st6" d="M49.2,86.6c2.3,6.6,5.3,13.1,6.2,20.1c-0.2,3.8-0.4,7.5-0.2,11.3c-4.3,0.4-1.6,7.2-5.5,8.8
		c-4.6,4.3-10.2,6.8-16.6,6.4c-4.7,4.1-11,1.9-16.6,3.1c-5.6-0.4-10.9,3.5-16.5,1.9v-34.8c0.2-0.7,0.7-2,0.9-2.6
		c1.7,3.2,5.1,5.8,7.5,1.7c12.2-1.5,24.8-2.3,36.3-6.9C50.5,96.2,47.9,90,49.2,86.6z"/>
</g>
<g id="_x23_7085e6ff">
	<path class="st7" d="M240.8,97.7c4.5-2.1,10.1,1.1,9.2,6.7v13.5c-8.9,0.7-17.9,1.9-26.6,4.4c-6.6,1.4-14.7-0.7-20.6,3.2
		c-1.5,5.9-8.5,3.6-12.7,2.1c-3.3,3.1-9.4,2.4-10.8,7.2c-4.2,2.3-4.4-2.1-6.5-3.8c-5.2,1.2-10.9,2.1-14.6,6.4
		c-3.9,1.9-9.5-2.3-12.9,1.1c-8.9,9-25.5-1.6-33.6,8.2c-2.2-0.9-4-2.8-6.5-2.6c-1.1,2.3-1.5,5.1-3.3,7.1c-3.1-1.1-2.2-5.2-4.1-7.4
		c3.7-10,3.6-20.5,3.5-30.9c2,4.2-1.9,18,3.8,10.4c6.9-1.3,14.8-0.5,21.5-3.6c7.2-3.5,16.5-0.7,22.9-6.1c3.2-3.1,9.7,2.2,10.8-3.3
		C187.8,121.1,214.9,105.7,240.8,97.7z"/>
</g>
<g id="_x23_a8aae1ff">
	<path class="st8" d="M55.4,106.7c0.5,3.8,0.6,7.5-0.2,11.3C55,114.2,55.2,110.5,55.4,106.7z"/>
</g>
<g id="_x23_7082e6ff">
	<path class="st9" d="M49.8,126.8c3.8-1.6,1.1-8.3,5.5-8.8c-1.8,14.2-8.6,27.4-15,40.1c-5.1,3.5-8,10.9-14.9,12.2
		c-6.5,2.9-12.1-1.6-17.9-3.7c0.4-3-0.3-6.1-3.4-6.9c-1.6-5.3-2.8-10.7-4-16.1v-5.3c5.6,1.6,10.9-2.4,16.5-1.9
		c5.6-1.2,12,1,16.6-3.1C39.5,133.6,45.2,131.1,49.8,126.8z"/>
</g>
<g id="_x23_6e8fe4ff">
	<path class="st10" d="M223.4,122.2c8.6-2.5,17.6-3.7,26.6-4.4v16.1c-20.6,5.9-43.1-2.3-63.4,5.7c-10,3.6-19.2,10-25.6,18.6
		c-3.4-5.8-7.9,0.4-11.8,2.1c-7.1-2.2-14.3,0-20.9,3.1c-13.6,0.6-27.4,5.5-40.9,4.7c3.5-8.1,7.5-16,10.4-24.4c1.9,2.2,1,6.2,4.1,7.4
		c1.8-2,2.2-4.7,3.3-7.1c2.5-0.1,4.4,1.7,6.5,2.6c8.2-9.8,24.8,0.9,33.6-8.2c3.5-3.5,9.1,0.8,12.9-1.1c3.7-4.3,9.4-5.2,14.6-6.4
		c2.1,1.7,2.2,6.1,6.5,3.8c1.4-4.8,7.5-4.1,10.8-7.2c4.2,1.5,11.2,3.8,12.7-2.1C208.7,121.5,216.8,123.7,223.4,122.2z"/>
</g>
<g id="_x23_fcfefeff">
	<path class="st11" d="M186.6,139.6c20.3-8,42.8,0.2,63.4-5.7V250H127.6c14.3-3.9,18.8-19,19.4-32.1c0.2-4.6,0.9-9.1,0.9-13.7
		c0.6-9.1,1.2-18.1,3.3-27c2.4-6.8,5.4-13.3,9.8-19.1C167.4,149.6,176.6,143.2,186.6,139.6 M233.6,156.6
		c-18.7,2.5-40.5,14.7-41.7,35.5c-1.6,9.1,1.3,21.8,4.3,31.9c8.5,1.4,13.6-6.8,19-11.7c7.3-8.8,15.9-17.3,19.8-28.3
		c5.2-5.9,7.5-14.1,10.6-21.3C248.7,154.4,238.2,155.5,233.6,156.6z"/>
</g>
<g id="_x23_6c9be3ff">
	<path class="st12" d="M149.2,160.2c3.9-1.6,8.4-7.9,11.8-2.1c-4.4,5.7-7.4,12.3-9.8,19.1c-3.7-2.7-5,1.9-6.8,4.3
		c-10.1,1.1-20.2,2.2-30.2,3.7c-5.1,4.2-12.2,2.4-17.8,5.2c-5.2,1-13.7,6.6-16.9-0.5c1.9-7.6,4.6-14.9,7.9-21.9
		c13.4,0.8,27.3-4.1,40.9-4.7C134.9,160.3,142.1,158,149.2,160.2z"/>
</g>
<g id="_x23_6ca7dfff">
	<path class="st13" d="M233.6,156.6c4.6-1.1,15.1-2.1,12,6.1c-3.1,7.2-5.3,15.4-10.6,21.3c-3.5,1.3-5.6,4.4-6.5,7.9
		c-2.8,1.2-2.6-3.8-5.2-3.2c-4.5,1.5-9.3,0.5-13.9,0.4c1,5.5-6.2-2.3-7.5,2c-1.5,4.7-6.5,0.5-8.9,4c-1.9,2.3-0.8-1.9-1.1-3
		C193.1,171.2,214.9,159.1,233.6,156.6z"/>
</g>
<g id="_x23_7393dfff">
	<path class="st14" d="M25.3,170.3c7-1.4,9.8-8.7,14.9-12.2c-4.1,10.7-10.2,20.4-13.9,31.3c-0.8,4.3-7.2,3.8-9.1,0.4
		c-5.4-9.5-10.6-19.3-13.2-30c3.1,0.8,3.8,3.9,3.4,6.9C13.2,168.7,18.8,173.2,25.3,170.3z"/>
</g>
<g id="_x23_6ba7e1ff">
	<path class="st15" d="M144.4,181.6c1.8-2.4,3.1-7,6.8-4.3c-2.1,8.9-2.8,17.9-3.3,27c-1.1-1.3-2.1-2.7-3.2-3.9
		c-5.7,2.2-12.4,0.3-17.8,3.6c-4.2,2.5-9,2.7-13.7,3.3c-6.2,5.9-16-0.4-23.2,2.8c-3.4,3-4.2,7.8-6.8,11.3c-5-9.6-6.8-20.9-3.8-31.5
		c3.2,7.1,11.7,1.5,16.9,0.5c5.7-2.8,12.7-1,17.8-5.2C124.2,183.8,134.3,182.7,144.4,181.6z"/>
</g>
<g id="_x23_6bb4dcff">
	<path class="st16" d="M228.5,191.8c0.9-3.5,3-6.5,6.5-7.9c-3.9,11-12.5,19.6-19.8,28.3c-5.4,4.9-10.6,13.1-19,11.7
		c-3-10.1-5.9-22.8-4.3-31.9c0.3,1.1-0.8,5.2,1.1,3c2.4-3.5,7.5,0.7,8.9-4c1.2-4.3,8.5,3.6,7.5-2c4.6,0.1,9.4,1.1,13.9-0.4
		C225.9,188,225.7,193,228.5,191.8z"/>
</g>
<g id="_x23_68b2e0ff">
	<path class="st17" d="M127,203.9c5.3-3.4,12-1.4,17.8-3.6c1.1,1.2,2.1,2.6,3.2,3.9c0,4.6-0.7,9.1-0.9,13.7c-2.9,3.1-5.8,7.7-11,5.4
		c-6-3.3-7.2,6.1-13,3.7c-8.3,0.4-16.3,3.1-24.1,5.8c-4,1.1-9.8-7.5-8.3,0.5c-3.5-3.2-5.5-7.6-7.4-11.9c2.6-3.5,3.4-8.3,6.8-11.3
		c7.2-3.2,17,3.1,23.2-2.8C117.9,206.6,122.8,206.4,127,203.9z"/>
</g>
<g id="_x23_69bdddff">
	<path class="st18" d="M136,223.3c5.2,2.3,8.1-2.3,11-5.4c-0.6,13.1-5.1,28.2-19.4,32.1h-13.1c-9.7-2.6-18.2-8.4-23.8-16.7
		c-1.6-8,4.3,0.6,8.3-0.5c7.8-2.7,15.7-5.4,24.1-5.8C128.9,229.3,130,220,136,223.3z"/>
</g>
</svg>
